packages/ui-icons/svg/Solid/flag.svg

<svg viewBox="0 0 1920 1920" version="1.1" xmlns="http://www.w3.org/2000/svg">
    <path d="M168.941176,-0.0112941176 L168.941176,1919.98871 L56,1919.98871 L56,-0.0112941176 L168.941176,-0.0112941176 Z M281.882353,68.4423529 C590.550588,-13.2141176 778.032941,94.8705882 959.077647,201.487059 C1162.48471,321.430588 1372.66824,445.552941 1792.92235,340.517647 C1813.13882,335.548235 1834.59765,341.985882 1848.71529,357.684706 C1862.60706,373.383529 1866.78588,395.52 1859.55765,415.171765 C1656.15059,957.515294 1355.38824,967.905882 1064.56471,977.957647 C841.28,985.863529 610.315294,993.769412 378.221176,1225.86353 L378.221176,1225.86353 L281.882353,1322.20235 Z" stroke="none" stroke-width="1" fill-rule="evenodd"/>
</svg>

<svg viewBox="0 0 1920 1920" xmlns="http://www.w3.org/2000/svg">
    <path d="M168.941-.011v1920H56v-1920h112.941Zm112.941 68.453c308.669-81.656 496.15 26.429 677.196 133.045 203.407 119.944 413.59 244.066 833.844 139.03 20.217-4.969 41.676 1.469 55.793 17.168 13.892 15.699 18.07 37.835 10.843 57.487-203.407 542.343-504.17 552.734-794.993 562.786-223.285 7.906-454.25 15.811-686.344 247.906l-96.339 96.338Z" fill-rule="evenodd"/>
</svg>
